X:1
T:Title
%%score { ( 1 4 ) | ( 2 3 ) }
L:1/8
Q:1/4=100
M:4/4
K:G
V:1 treble nm="Grand Piano"
V:4 treble 
V:2 treble 
V:3 treble 
V:1
 BABc d2 e2 | d3 B G4 | FEFG A4 | GFGA B4 | BABc d2 [Ge]2 |[M:3/4] [Fd]4 [G,G]2 |[M:1/4] [EGA]2 | %7
w: T.~Martin~Towne * * * * *|||||||
[M:4/4] [DGB]2 [DAc]2 [DGB]2 [CDA]2 | [B,DG]6 z2 | d4 B4 | B4 G4 | GF z A B2 [Gc]2 | d3 c [DFA]4 | %13
w: ||||||
 d4 B4 | B4 z4 | E3 [EAc] [DGB]2 .[CDA]2 |[M:3/4] [B,DG]6 |] %17
w: ||||
V:2
 [G,DG][G,CD][G,B,G][G,A,G] [G,B,G]2 [G,CG]2 | [G,G]3- [G,DG][K:bass] [G,B,D]4 | %2
 [D,A,C][D,G,C][D,A,C][D,G,B,] [D,F,D]4 | [G,B,D][CD][B,D][A,DF] [G,DG]4 | %4
 [G,DG][G,CD][G,B,G][G,A,G] [G,B,G]2[K:bass] [C,C]2 |[M:3/4] z2 z[K:treble] B[K:bass] E,2 | %6
[M:1/4] C,2 |[M:4/4] D,2 D,2 D,2 D,2 | G,,6 z2 | [G,B,G]2 [G,B,]2 [G,DG]2 [G,D]2 | %10
 [G,DG]2[K:bass] [G,D]2 [G,B,D]2 [G,B,]2 | [G,D]-[G,A,D]G,-[G,C] [G,DG]2 [E,C]2 | A,4 z4 | %13
 G,,2 G,,2[K:treble] [G,DG]2 [G,D]2 | [G,DG]2 [G,D]2 [G,B,D]4 | [C,C]3 A,, D,2 .D,2 | %16
[M:3/4] G,,6 |] %17
V:3
 x8 | B,4[K:bass] z4 | x8 | x8 | x6[K:bass] x2 |[M:3/4] [D,A,]4[K:treble][K:bass] z2 |[M:1/4] x2 | %7
[M:4/4] x8 | x8 | x8 | x2[K:bass] x6 | .B,2 .B,2 z4 | D,3- [D,D] D,4 | x4[K:treble] x4 | x8 | x8 | %16
[M:3/4] x6 |] %17
V:4
 x8 | x8 | x8 | x8 | x8 |[M:3/4] x6 |[M:1/4] x2 |[M:4/4] x8 | x8 | z2 G2 z2 G2 | z2 G2 z2 D2 | %11
 z2 G2 z4 | F4 z4 | [B,G]2 [B,G]2 z2 G2 | z2 G2 G4 | x8 |[M:3/4] x6 |] %17

